X: 2
T: Doctor O'Neill
R: jig
M: 6/8
L: 1/8
K: Dmaj
A|:~d3 AFD|E2F G2 A|~B3 Bcd|AGF EFA|~d3 AFD|E2 F G2 A|BGB Bcd|AFD D2 A:| |:~d3 ceA|dfe dcB|AFA Bcd|AGF E2A|~d3 ceA|dfe dcB|AFA Bcd|1AFD D2 A:|2AFD D2 g||:~f3 afd|ded fed|~g3 faf|gee e2 g|~f3 afd|ded fed|gbg fag|fdd d2 g:||:fdf ece|dcB AFA|AFd AFD|AGF E2 g|fdf ece|dcB AFA|~B3 Bcd|1AFD D2 g:||2AFD D2 G||:FAF GBG|FAG FED|FAF GBG|AGF E2G|FAF GBG|FAG FED|~B3 Bcd|1AFD D2 G:|2AFD D3||


Tune 1304	Setting 1304

